X: 2
T: The Auld Grey Cat
O: c.1880
B: Kerr "Merry Melodies", c.1880, v.1; No.8, p.28
Z: John Chambers <jc:trillian.mit.edu>
M: C|
L: 1/8
K: EDor
|: "Em"{^d}e2e2 E2-EF | GFGA BABc | "D"{c}d2d2 D2-DE | FAdB AFED |  "Em"{^d}e2e2 E2-EF |
| GFGA BABc | "D"{c}dcBA "B7"BAGF | "Em"E4 e2z2 :: "Em"{d}B2e2 e2-ed  | Bdef gfed |
| "D"A2d2 d3B | ABde fedf | "Em"e2B2 "D"g2B2 | "C"a2B2 "B7"b3a | "Am"gfed "B7"BAB^d | "Em"e6 z2 :|

%%sep 2 1 500

